X: 15275
T: Girl Who Was Poorly Clad, The
R: waltz
M: 3/4
K: Dmajor
|(=cd)|e2 e2 (=fe)|d2 d2 (ed)|=c2 c2 (dc)|
A2A2 (=cd)|e2 e2 (=fe)|d2 d2 (ed)|(=cA3B|=c4) (eg)|
a2 a2 (ag)|e2e2 (ed)|(=c3d) (=cA)|(A2G2) (=cd)
e2e2 (=fe)|d2d2 (ed)|(=c2A3B|=c4)||

